!!!!SEGMENT: pl-kk--kk-i-1--043_anonim--terribilis-est-locus-iste.krn
!!!cenid: 15xx:756
!!!COM: Anonim
!!!COM-rismid: pe30004985
!!!CDT:
!!!CNT:
!!!OTL: Terribilis est locus iste
!!!PDT:
!!!AGN:
!!!SMS-siglum: PL-Kk
!!!SMS-shelfmark: Kk.I.1
!!!SMS-shelfwork: 043 W
!!!SMS-variant:
!!!SMS-altvar:
!!!NIFC-rismid: 300257997
!!!URL-scan: http://repozytorium.nifc.pl/skany/pl-kk-nut--i-1
!!!ONB-nifc: UWAGA: Cantus (s. 140v-141r, skan 0143), Altus (s. 135v-136r, skan 0329), Tenor (s. 115v-116r, skan 0506), Bassus (s. 128r-v, skan 0690-0691).
!!!AIN: 1 alto 1 bass 1 soprn 1 tenor
!!!key: g:dor
**kern	**text	**kern	**text	**kern	**text	**kern	**text
*part4	*part4	*part3	*part3	*part2	*part2	*part1	*part1
*staff4	*staff4	*staff3	*staff3	*staff2	*staff2	*staff1	*staff1
*I"BASSVS	*	*I"TENOR	*	*I"ALTVS	*	*I"CANTVS	*
*I'B	*	*I'T	*	*I'A	*	*I'S	*
*Ibass	*	*Itenor	*	*Ialto	*	*Isoprn	*
*ICvox	*	*ICvox	*	*ICvox	*	*ICvox	*
*clefF4	*	*clefC4	*	*clefC4	*	*clefC3	*
*k[b-]	*	*k[b-]	*	*k[b-]	*	*k[b-]	*
*g:dor	*	*g:dor	*	*g:dor	*	*g:dor	*
*M2/1	*	*M2/1	*	*M2/1	*	*M2/1	*
*met(C|)	*	*met(C|)	*	*met(C|)	*	*met(C|)	*
=1-	=1-	=1-	=1-	=1-	=1-	=1-	=1-
!!LO:TX:t=P:problem:all\middle:global
!!LO:TX:t=P:problem:metrum przed kluczem
0r	.	1G	Ter-	1r	.	0r	.
.	.	1G	-ri-	1d	Ter-	.	.
=2-	=2-	=2-	=2-	=2-	=2-	=2-	=2-
1D	Ter-	1F	-bi-	2.d\	-ri-	1r	.
.	.	.	.	4c\	.	.	.
4D/	-ri-	1D	-lis	2B-\	.	1d	Ter-
4C/	.	.	.	.	.	.	.
4BB-/	.	.	.	1A\	-bi-	.	.
4AA/	.	.	.	.	.	.	.
=3-	=3-	=3-	=3-	=3-	=3-	=3-	=3-
1BB-	-bi-	1D	eſt	.	.	1d	-ri-
.	.	.	.	2G/	-lis	.	.
*	*	*lig	*	*	*	*	*
1AA	-lis	1F	.	2A/	e(st)	1c	-bi-
.	.	.	.	2A/	lo-	.	.
=4-	=4-	=4-	=4-	=4-	=4-	=4-	=4-
0GG	eſt	1G	.	2D/	-cus	4B-/	-lis
.	.	.	.	.	.	4A/	.
.	.	.	.	2.d\	i-	4B-/	.
.	.	.	.	.	.	4c/	.
*	*	*Xlig	*	*	*	*	*
.	.	1B-	lo-	.	.	1d	eſt
.	.	.	.	4c\	.	.	.
.	.	.	.	4B-\	.	.	.
.	.	.	.	4A\	.	.	.
=5-	=5-	=5-	=5-	=5-	=5-	=5-	=5-
1.E-X	lo-	1B-	-cus	1G	-ſte	1.e-X	lo-
*	*	*lig	*	*custos:G	*	*	*
!	!	!	!	!LO:LB:g=original	!	!	!
.	.	1B-	i-	1G	.	.	.
2E-\	-cus	.	.	.	.	2e-\	-cus
=6-	=6-	=6-	=6-	=6-	=6-	=6-	=6-
1C	i-	1c	.	2G/	.	1e-yX	i-
.	.	.	.	2.G/	.	.	.
*	*	*Xlig	*	*	*	*	*
*	*	*lig	*	*	*	*	*
1D	-ſte	1A	.	.	.	2d\	-ſte
.	.	.	.	8F/L	.	.	.
.	.	.	.	8E/J	.	.	.
*	*	*	*	*	*	*	*ij
.	.	.	.	2F/	.	2d\	lo-
*	*	*	*	*	*	*custos:d	*
=7-	=7-	=7-	=7-	=7-	=7-	=7-	=7-
!	!	!	!	!	!	!LO:LB:g=original	!
2r	.	1B-	.	1G	.	2d\	-cus
*	*ij	*	*	*	*	*	*
2BB-/	lo-	.	.	.	.	2.g\	i-
*	*	*Xlig	*	*	*	*	*
*	*	*lig	*	*	*	*	*
2C/	.	1A	-ſte	2r	.	.	.
.	.	.	.	.	.	8f\L	.
.	.	.	.	.	.	8eny\J	.
2D/	-cus	.	.	1d\	hic	2f\	.
*custos:E	*	*	*	*	*	*	*
=8-	=8-	=8-	=8-	=8-	=8-	=8-	=8-
!LO:LB:g=original	!	!	!	!	!	!	!
1Eny	i-	1G	.	.	.	2g\	-ſte
*	*	*	*	*	*	*	*Xij
.	.	.	.	2c\	do-	2G/	hic
*	*	*Xlig	*	*	*	*	*
2D/	-ſte	1F	hic	2d\	-mus	1A	do-
*	*Xij	*	*	*	*	*	*
2D/	hic	.	.	2.f\	.	.	.
=9-	=9-	=9-	=9-	=9-	=9-	=9-	=9-
2D/	do-	1F	do-	.	.	2A/	-mus
.	.	.	.	4e\	De-	.	.
2BB-/	-mus	.	.	1d	-i	2.B-/	De-
*	*	*custos:G	*	*	*	*	*
*	*	*lig	*	*	*	*	*
!	!	!LO:LB:g=original	!	!	!	!	!
1E	De-	1G	.	.	.	.	.
.	.	.	.	.	.	4A/	-i
.	.	.	.	2c\	eſt	2G/	eſt
=10-	=10-	=10-	=10-	=10-	=10-	=10-	=10-
2D/	-i	1A	.	1d	.	2F/	.
2D/	eſt	.	.	.	.	2F/	.
*	*	*Xlig	*	*	*	*	*
*	*	*lig	*	*	*ij	*	*ij
1r	.	1c	-mus	1A	do-	1F	hic
=11-	=11-	=11-	=11-	=11-	=11-	=11-	=11-
2r	.	1B-	.	2B-\	-mus	2G/	do-
*	*ij	*	*	*	*	*	*
2BB-/	hic	.	.	2.d\	De-	4B-/	.
.	.	.	.	.	.	4c/	.
*	*	*Xlig	*	*	*	*	*
2.BB-/	do-	1F	.	.	.	4d\	-mus
.	.	.	.	4c\	.	4e\	.
.	.	.	.	2B-\	-i	2.f\	De-
4C/	.	.	.	.	.	.	.
=12-	=12-	=12-	=12-	=12-	=12-	=12-	=12-
*	*	*lig	*	*	*	*	*
4D/	.	1F	De-	1A	eſt	.	.
4E\	.	.	.	.	.	4e\	.
2F\	.	.	.	.	.	1d	.
*	*	*	*	*custos:B	*	*	*
!	!	!	!	!LO:LB:g=original	!	!	!
1E	.	1G	.	2B-\	do-	.	.
.	.	.	.	4A/	.	2c/	-i
.	.	.	.	4G/	.	.	.
*	*	*Xlig	*	*	*	*custos:d	*
=13-	=13-	=13-	=13-	=13-	=13-	=13-	=13-
!	!	!	!	!	!	!LO:LB:g=original	!
2D/	-mus	2A/	.	2F/	-mus	2d\	eſt
1BB-	De-	2.B-\	.	1d	De-	2f\	hic
.	.	.	.	.	.	2f\	do-
.	.	4A/	.	.	.	.	.
2C/	.	1G/	.	4c\	-i	2e\	-mus
.	.	.	.	4B-\	.	.	.
=14-	=14-	=14-	=14-	=14-	=14-	=14-	=14-
1D	-i	.	.	1A	eſt	1d	De-
*	*	*	*	*	*Xij	*	*
.	.	2F/	-i	.	.	.	.
2GG/	eſt	1G	eſt	2B-\	et	2d\	-i
*	*Xij	*	*	*	*	*	*
2C/	et	.	.	2c\	por-	2G/	eſt
*custos:E	*	*	*	*	*	*	*Xij
=15-	=15-	=15-	=15-	=15-	=15-	=15-	=15-
!LO:LB:g=original	!	!	!	!	!	!	!
1E-	por-	1G	et	2.B-\	.	1r	.
.	.	.	.	8A/L	.	.	.
.	.	.	.	8G/J	.	.	.
*	*	*lig	*	*	*	*	*
2D/	-ta	1B-	por-	2F/	.	1d	Et
2BB-/	cae-	.	.	1G/	-ta	.	.
=16-	=16-	=16-	=16-	=16-	=16-	=16-	=16-
2C/	.	1A	.	.	.	2e\	por-
2D/	.	.	.	2F/	cae-	2f\	-ta
*	*	*Xlig	*	*	*	*	*
*	*	*lig	*	*	*	*	*
2GG/	-li	1B-	-ta	2G/	-li	4d\	.
.	.	.	.	.	.	4c\	cae-
*	*ij	*	*	*	*ij	*	*
2G\	et	.	.	2B-\	et	4d\	.
.	.	.	.	.	.	4e\	.
=17-	=17-	=17-	=17-	=17-	=17-	=17-	=17-
2F\	.	1c	.	2A/	por-	1f	.
2F\	por-	.	.	2A/	-ta	.	.
*	*	*Xlig	*	*	*	*	*
*	*	*lig	*	*	*	*	*
4C/	.	1c	cae-	4G/	cae-	1e	-li
4D/	.	.	.	4F/	.	.	.
4Eny\	.	.	.	4G/	.	.	.
4F\	.	.	.	4A/	.	.	.
=18-	=18-	=18-	=18-	=18-	=18-	=18-	=18-
2G\	.	1B-	.	2B-\	.	2.d\	.
2GG/	-ta	.	.	2G/	-li	.	.
.	.	.	.	.	.	4c/	.
*lig	*	*Xlig	*	*custos:F	*	*	*
*	*	*lig	*	*	*	*	*
!	!	!	!	!LO:LB:g=original	!	!	!
1BB-	cae-	1B-	-li	2F/	et	4B-/	.
.	.	.	.	.	.	4A/	.
.	.	.	.	2D/	.	1G/	.
=19-	=19-	=19-	=19-	=19-	=19-	=19-	=19-
1AA	.	1c	.	2E/	por-	.	.
.	.	.	.	4D/	.	2F/	.
.	.	.	.	4C/	.	.	.
*Xlig	*	*Xlig	*	*	*	*custos:G	*ij
!	!	!	!	!	!	!LO:LB:g=original	!
4GG/	.	1B-	.	2D/	-ta	2G/	Et
4AA/	.	.	.	.	.	.	.
4BB-/	.	.	.	2B-\	cae-	2d\	por-
4C/	.	.	.	.	.	.	.
*	*	*custos:F	*	*	*	*	*
=20-	=20-	=20-	=20-	=20-	=20-	=20-	=20-
!	!	!LO:LB:g=original	!	!	!	!	!
1D	.	1F	.	2A/	.	2d\	-ta
.	.	.	.	2B-\	.	2.f\	cae-
*	*	*lig	*	*	*	*	*
1C	.	1G	.	1c	.	.	.
.	.	.	.	.	.	8e\L	.
.	.	.	.	.	.	8d\J	.
.	.	.	.	.	.	2e\	.
=21-	=21-	=21-	=21-	=21-	=21-	=21-	=21-
1FF	-li	1F	.	1A	-li	2f\	-li
*	*Xij	*	*	*	*	*	*Xij
.	.	.	.	.	.	1c	et
*	*	*Xlig	*	*	*Xij	*	*
1r	.	1F	et	1A	Et	.	.
.	.	.	.	.	.	1d\	vo-
*custos:GG	*	*	*	*	*	*	*
=22-	=22-	=22-	=22-	=22-	=22-	=22-	=22-
!LO:LB:g=original	!	!	!	!	!	!	!
2r	.	1G	vo-	1.B-	Vo-	.	.
1GG	et	.	.	.	.	1d	-ca-
.	.	1G	-ca-	.	.	.	.
2C/	Vo-	.	.	2c\	-ca-	2e\	.
=23-	=23-	=23-	=23-	=23-	=23-	=23-	=23-
*	*	*lig	*	*	*	*	*
2BB-/	.	1B-	.	2d\	-bi-	2f\	-bi-
4AA/	-ca-	.	.	4c\	.	1g	.
4GG/	.	.	.	4B-\	.	.	.
1AA	-bi-	1c	.	1A	-tur	.	.
.	.	.	.	.	.	2f\	-tur
*	*	*Xlig	*	*	*	*	*
=24-	=24-	=24-	=24-	=24-	=24-	=24-	=24-
*	*	*	*	*	*ij	*	*
2GG/	-tur	1B-	.	1d	et	1g	.
2G\	.	.	.	.	.	.	.
2.G\	.	1B-	-bi-	2e-X\	Vo-	2r	.
*	*	*	*	*	*	*	*ij
.	.	.	.	1d\	-ca-	2d\	et
4F\	.	.	.	.	.	.	.
=25-	=25-	=25-	=25-	=25-	=25-	=25-	=25-
1E	.	1G	-tur	.	.	2g\	.
.	.	.	.	2c\	-bi-	2g\	vo-
=-	=-	=-	=-	=-	=-	=-	=-
*	*	*	*	*k[b-e-]	*	*	*
*	*	*lig	*	*custos:d	*	*	*
!	!	!	!	!LO:PB:g=original	!	!	!
2D/	.	1B-	.	1d	-tur	2.f\	-ca-
*	*	*	*	*	*Xij	*	*
2.BB-/	au-	.	.	.	.	.	.
.	.	.	.	.	.	4e\	-bi-
=26-	=26-	=26-	=26-	=26-	=26-	=26-	=26-
.	.	1F	.	2r	.	2d\	-tur
*	*	*	*	*	*	*	*Xij
4C/	.	.	.	.	.	.	.
4D/	.	.	.	1A	Au-	2f\	Au-
4E\	.	.	.	.	.	.	.
*	*	*Xlig	*	*	*	*	*
*	*	*lig	*	*	*	*	*
2F\	.	1D	.	.	.	2f\	-la
*	*	*	*	*	*	*custos:f	*
!	!	!	!	!	!	!LO:PB:g=original	!
2.D/	-la	.	.	1B-\	-la	2.f\	De-
=27-	=27-	=27-	=27-	=27-	=27-	=27-	=27-
.	.	1F	.	.	.	.	.
4C/	.	.	.	.	.	4e\	.
4BB-/	.	.	.	1A	.	4d\	.
4AA/	.	.	.	.	.	4c\	.
*lig	*	*Xlig	*	*	*	*lig	*
1BB-	De-	1D	au-	.	.	1d	.
.	.	.	.	2G/	De-	.	.
=28-	=28-	=28-	=28-	=28-	=28-	=28-	=28-
*	*	*lig	*	*	*	*	*
1AA	.	1F	.	1A	-i	1c	.
*Xlig	*	*	*	*	*	*Xlig	*
2GG/	-i	1G	.	2r	.	2B-/	-i
*	*ij	*	*	*	*ij	*	*ij
1C/	au-	.	.	1c\	Au-	1e\	Au-
*	*	*Xlig	*	*	*	*	*
=29-	=29-	=29-	=29-	=29-	=29-	=29-	=29-
.	.	1G	-la	.	.	.	.
2C/	-la	.	.	2c\	-la	2e\	-la
*custos:BB	*	*lig	*	*	*	*	*
!LO:PB:g=original	!	!	!	!	!	!	!
2.BB-/	De-	1B-	.	0d	De-	0f	De-
4C/	.	.	.	.	.	.	.
=30-	=30-	=30-	=30-	=30-	=30-	=30-	=30-
4D/	.	1F	.	.	.	.	.
4C/	.	.	.	.	.	.	.
4BB-/	.	.	.	.	.	.	.
4AA/	.	.	.	.	.	.	.
*	*	*Xlig	*	*	*	*	*
*	*	*custos:B	*	*	*	*	*
*	*	*lig	*	*	*	*	*
!	!	!LO:LB:g=original	!	!	!	!	!
2GG/	-i	1B-	.	2B-\	.	2g\	.
*	*Xij	*	*	*	*	*	*
1E-X\	au-	.	.	1e-\	.	2G/	.
=31-	=31-	=31-	=31-	=31-	=31-	=31-	=31-
.	.	1G	.	.	.	2B-/	.
2BB-/	-la	.	.	1d	.	2.B-/	-i
*	*	*Xlig	*	*	*	*	*
1E-yX	De-	1G	De-	.	.	.	.
.	.	.	.	.	.	4A/	.
.	.	.	.	2c\	.	1G/	.
=32-	=32-	=32-	=32-	=32-	=32-	=32-	=32-
1D	-i	1A	.	1d	-i	.	.
.	.	.	.	.	.	2F/	Au-
*	*ij	*	*	*	*	*	*
4GG/	au-	1B-	.	2r	.	2G/	-la
4AA/	.	.	.	.	.	.	.
4BB-/	.	.	.	2G/	Au-	1d\	De-
4C/	.	.	.	.	.	.	.
=33-	=33-	=33-	=33-	=33-	=33-	=33-	=33-
2D/	.	2A/	.	2F/	.	.	.
2Eny\	.	1G	.	2G/	-la	2c/	.
1D	.	.	.	1A	De-	1d	-i
.	.	2F/	.	.	.	.	.
*	*	*	*	*custos:B	*	*custos:d	*
=34-	=34-	=34-	=34-	=34-	=34-	=34-	=34-
*	*	*	*	*	*	*k[b-e-]	*
!	!	!	!	!LO:LB:g=original	!	!LO:LB:g=original	!
2GG/	-la	00.G;	-i	2B-\	-i	2d\	Au-
1C	De-	.	.	1c	Au-	1e-	.
2BB-/	.	.	.	2d\	-la	2d\	-la
=35-	=35-	=35-	=35-	=35-	=35-	=35-	=35-
*	*	*	*	*	*	*lig	*
0C	.	.	.	2.e-\	De-	1c	De-
.	.	.	.	4d\	.	.	.
.	.	.	.	4c\	.	1e-	.
.	.	.	.	4B-\	.	.	.
.	.	.	.	1c\	.	.	.
*	*	*	*	*	*	*Xlig	*
=36-	=36-	=36-	=36-	=36-	=36-	=36-	=36-
0GG;l/	-i	.	.	.	.	0d;<l	-i
*	*Xij	*	*	*	*	*	*Xij
.	.	.	.	4B-\	.	.	.
.	.	.	.	4A\	.	.	.
.	.	.	.	1B-;<l\	-i	.	.
*custos:D	*	*custos:F	*	*	*Xij	*	*
=37-	=37-	=37-	=37-	=37-	=37-	=37-	=37-
!LO:LB:g=original	!	!LO:PB:g=original	!	!	!	!	!
1D	Qua(m)	1F	Qua(m)	1A	Q(ua)m	1d	Quam
1C	di-	1G	di-	1c	di-	1e-	di-
=38-	=38-	=38-	=38-	=38-	=38-	=38-	=38-
1BB-	-lec-	1B-	-lec-	1d	-lec-	1f	-lec-
2GG/	-ta	2B-\	-ta	2d\	-ta	2B-/	-ta
!LO:TX:t=P:problem=w Bassus nie ma zanotowanych bemoli "es", ale są oczywiste (częste skoki B-Es), może właśnie z powodu tej oczywistości nie zostały zapisane?	!	!	!	!	!	!	!
!LO:SIC:v:s=1E-	!	!	!	!	!	!	!
1E	ta-	1B-\	ta-	1G/	ta-	1e-\	ta-
=39-	=39-	=39-	=39-	=39-	=39-	=39-	=39-
.	.	.	.	.	.	.	.
!LO:SIC:v:s=2E-\	!	!	!	!	!	!	!
2E\	-ber-	2B-\	-ber-	2G/	-ber-	2e-\	-ber-
!LO:SIC:v:s=2E-\	!	!	!	!	!	!	!
2E\	-na-	2B-\	-na-	2G/	-na-	2e-\	-na-
!LO:SIC:v:s=2E-\	!	!	!	!	!	!	!
2E\	-cu-	2B-\	-cu-	2G/	-cu-	2e-\	-cu-
*	*	*	*	*custos:F	*	*	*
=40-	=40-	=40-	=40-	=40-	=40-	=40-	=40-
*	*	*	*	*k[b-]	*	*	*
!	!	!	!	!LO:LB:g=original	!	!	!
2BB-/	-la	1B-	-la	2F/	-la	2d\	-la
1BB-	tu-	.	.	1F	tu-	2d\	tu-
.	.	2B-\	tu-	.	.	1d	-a
2GG/	-a	2B-\	-a	2G/	-a	.	.
*	*	*	*	*	*	*custos:G	*
=41-	=41-	=41-	=41-	=41-	=41-	=41-	=41-
*	*	*	*	*	*	*k[b-]	*
!	!	!	!	!	!	!LO:LB:g=original	!
1.G	Do-	1B-	Do-	2.d\	Do-	4G/	Do-
.	.	.	.	.	.	4A/	.
.	.	.	.	.	.	4B-/	.
.	.	.	.	4c\	.	4c/	.
.	.	2B-\	-mi-	2B-\	.	4d\	.
.	.	.	.	.	.	4e\	.
2F\	-mi-	2.c\	-ne	2A/	-mi-	2f\	-mi-
=42-	=42-	=42-	=42-	=42-	=42-	=42-	=42-
!LO:SIC:v:s=2E-\	!	!	!	!	!	!	!
2E\	-ne	.	.	2G/	-ne	2c/	-ne
.	.	4B-\	.	.	.	.	.
2D/	Vir-	1B-	Vir-	2F/	vir-	2d\	vir-
1C	-tu-	.	.	1c	-tu-	1e-X	-tu-
.	.	2A/	-tu-	.	.	.	.
=43-	=43-	=43-	=43-	=43-	=43-	=43-	=43-
1BB-	-tu(m)	1B-	-tum	1F	-tu(m)	1d	-tu(m)
1C	Co(n)-	1G	Con-	1E	Con-	1c	con-
*	*	*custos:B	*	*	*	*	*
=44-	=44-	=44-	=44-	=44-	=44-	=44-	=44-
!	!	!LO:LB:g=original	!	!	!	!	!
2BB-/	-cu-	2B-\	-cu-	2F/	-cu-	2d\	-cu-
2GG/	-pi-	2B-\	-pi-	2G/	-pi-	1d	-pi-
*custos:GG	*	*	*	*	*	*	*
!LO:LB:g=original	!	!	!	!	!	!	!
2GG/	-uit	2B-\	-uit	2D/	-uit	.	.
!LO:SIC:v:s=1E-	!	!	!	!	!	!	!
1E	et	1B-\	et	1G/	et	2G/	-uit
=45-	=45-	=45-	=45-	=45-	=45-	=45-	=45-
.	.	.	.	.	.	1r	.
2D/	de-	2B-\	de-	2F/	de-	.	.
!LO:SIC:v:s=1E-	!	!	!	!	!	!LO:SIC:v:s=1e-	!
1E	-fe-	1B-	-fe-	1G	-fe-	1eny	et
=46-	=46-	=46-	=46-	=46-	=46-	=46-	=46-
2BB-/	-cit	2B-\	-cit	1F	-cit	2d\	de-
2BB-/	a-	2B-\	a-	.	.	2d\	-fe-
!LO:SIC:v:s=2E-\	!	!	!	!	!	!	!
2E\	-ni-	2B-\	-ni-	2r	.	1G	-cit
!LO:SIC:v:s=1E-	!	!	!	!	!	!	!
1E\	-ma	2B-\	-ma	1G/	a-	.	.
=47-	=47-	=47-	=47-	=47-	=47-	=47-	=47-
.	.	1B-	me-	.	.	2r	.
4D/	me-	.	.	4F/	.	1d	a-
!	!	!	!	!LO:SIC:v:s=4E-/	!	!	!
4C/	.	.	.	4E/	.	.	.
*	*	*	*	*custos:F	*	*	*
!	!	!	!	!LO:LB:g=original	!	!	!
2BB-/	-a.	2B-\	-a	2F/	-ni-	.	.
2GG/	.	1B-\	in	2.G/	-ma	2d\	-ni-
=48-	=48-	=48-	=48-	=48-	=48-	=48-	=48-
2r	.	.	.	.	.	1d	-ma
.	.	.	.	4A\	.	.	.
1G	in	2B-\	a-	2B-\	me-	.	.
*	*	*	*	*	*	*custos:e	*
!	!	!	!	!	!	!LO:LB:g=original	!
.	.	1c	-tri-	1A	-a	2e\	me-
2F\	a-	.	.	.	.	2f\	-a
=49-	=49-	=49-	=49-	=49-	=49-	=49-	=49-
*	*	*lig	*	*	*ij	*	*
2.G\	-tri-	1B-	-a	2G/	a-	2d\	in
.	.	.	.	1B-	-ni-	1d	a-
4F\	-a	.	.	.	.	.	.
!LO:SIC:v:s=1E-	!	!	!	!	!	!	!
1E	.	1G	.	.	.	.	.
.	.	.	.	4A/	-ma	2c/	-tri-
.	.	.	.	4G/	.	.	.
*	*	*Xlig	*	*	*	*	*
=50-	=50-	=50-	=50-	=50-	=50-	=50-	=50-
2D/	.	1B-	Do-	2F/	me-	1d	-a
2BB-/	.	.	.	2D/	-a	.	.
*	*	*lig	*	*	*Xij	*	*
!	!	!	!	!	!	!LO:SIC:v:s=2e-\	!
2C/	.	1A	-mi-	2r	.	2e\	.
2.D/	Do-	.	.	2d\	in	2.f\	Do-
=51-	=51-	=51-	=51-	=51-	=51-	=51-	=51-
.	.	1F	.	2d\	a-	.	.
!LO:SIC:v:s=4E-\	!	!	!	!	!	!LO:SIC:v:s=4e-\	!
4E\	.	.	.	.	.	4e\	.
2F\	.	.	.	2A/	-tri-	1d	.
*custos:E	*	*Xlig	*	*	*	*	*
*	*	*lig	*	*	*	*	*
!LO:LB:g=original	!	!	!	!	!	!	!
1E-	-mi-	1G	-ni	2B-\	-a	.	.
.	.	.	.	1G/	Do-	2c/	-mi-
=52-	=52-	=52-	=52-	=52-	=52-	=52-	=52-
1D	-ni	1A	.	.	.	1d	-ni
.	.	.	.	2F/	-mi-	.	.
*	*	*Xlig	*	*	*	*	*ij
2r	.	0B-	.	2G/	-ni	2d\	in
*	*ij	*	*	*	*ij	*	*
2BB-/	in	.	.	2d\	in	2f\	a-
=53-	=53-	=53-	=53-	=53-	=53-	=53-	=53-
2BB-/	a-	.	.	2d\	a-	2f\	-tri-
2BB-/	-tri-	.	.	2d\	-tri-	2f\	-a
2C/	-a	[1G;l/	.	2c\	-a	2e\	.
1C/	Do-	.	.	1c\	Do-	1e\	Do-
=54-	=54-	=54-	=54-	=54-	=54-	=54-	=54-
.	.	0G]	.	.	.	.	.
2C/	-mi-	.	.	2c\	-mi-	2e\	-mi-
!	!	!	!	!LO:N:acc=#	!	!	!
1GG;l/	-ni	.	.	1Bni;<l\	-ni	1d;<l	-ni
*	*Xij	*	*	*	*Xij	*	*Xij
==	==	==	==	==	==	==	==
*-	*-	*-	*-	*-	*-	*-	*-
!!!system-decoration: [(s1,s2,s3,s4)]
!!!RDF**kern: > = above
!!!RDF**kern: < = below
!!!RDF**kern: l = terminal long
!!!RDF**kern: i = editorial accidental
!!!ENC: Katarzyna Serwa
!!!END: 2022-03-15
!!!ENC: Mateusz Solarz
!!!END: 2022-03-08
